website/static/img/bucklescript.svg

<?xml version="1.0" encoding="UTF-8"?>
<svg width="32px" height="32px" viewBox="0 0 32 32" version="1.1" xmlns="http://www.w3.org/2000/svg" xmlns:xlink="http://www.w3.org/1999/xlink">
    <!-- Generator: Sketch 47.1 (45422) - http://www.bohemiancoding.com/sketch -->
    <title>Artboard 3</title>
    <desc>Created with Sketch.</desc>
    <defs>
        <linearGradient x1="50%" y1="0%" x2="50%" y2="100%" id="linearGradient-1">
            <stop stop-color="#6F4824" offset="0%"></stop>
            <stop stop-color="#8F5D2F" offset="100%"></stop>
        </linearGradient>
        <linearGradient x1="2.73388929%" y1="39.0211096%" x2="100%" y2="39.0211105%" id="linearGradient-2">
            <stop stop-color="#BF9155" offset="0%"></stop>
            <stop stop-color="#8B582B" offset="100%"></stop>
        </linearGradient>
        <path d="M24,21.1715729 L22.1715729,23 L24,24.8284271 L24,29 C24,29.5522847 23.5522847,30 23,30 L9.5,30 L8,30 L8,28.5 L8,17.5 L8,16 L9.5,16 L23,16 C23.5522847,16 24,16.4477153 24,17 L24,21.1715729 Z M10,18 L10,28 L22,28 L22,18 L10,18 Z M12,22 L22,22 L22,24 L12,24 L12,22 Z" id="path-3"></path>
        <filter x="-9.4%" y="-10.7%" width="118.8%" height="121.4%" filterUnits="objectBoundingBox" id="filter-4">
            <feMorphology radius="0.5" operator="dilate" in="SourceAlpha" result="shadowSpreadOuter1"></feMorphology>
            <feOffset dx="0" dy="0" in="shadowSpreadOuter1" result="shadowOffsetOuter1"></feOffset>
            <feColorMatrix values="0 0 0 0 0   0 0 0 0 0   0 0 0 0 0  0 0 0 0.137879303 0" type="matrix" in="shadowOffsetOuter1"></feColorMatrix>
        </filter>
    </defs>
    <g id="Page-1" stroke="none" stroke-width="1" fill="none" fill-rule="evenodd">
        <g id="Artboard-3">
            <ellipse id="Oval" fill="url(#linearGradient-1)" cx="16" cy="7" rx="16" ry="6"></ellipse>
            <path d="M0.910430441,21 L0,21 L0,25 C0,28.3137085 7.163444,31 16,31 C24.836556,31 32,28.3137085 32,25 L32,21 L31.0895696,21 C31.6791775,21.6255579 32,22.2987292 32,23 C32,26.3137085 24.836556,29 16,29 C7.163444,29 0,26.3137085 0,23 C0,22.2987292 0.320822513,21.6255579 0.910430441,21 Z" id="Combined-Shape" fill="#000000" opacity="0.0661798007"></path>
            <rect id="Rectangle-15" fill="#644222" x="22" y="21" width="2" height="2"></rect>
            <path d="M32,8 L32,25 C32,28.3137085 24.836556,31 16,31 C7.163444,31 0,28.3137085 0,25 L0,9 L-6.66133815e-15,9 C0,12.3137085 7.163444,15 16,15 C24.836556,15 32,12.3137085 32,9 L32,8 Z" id="Combined-Shape" fill="url(#linearGradient-2)"></path>
            <ellipse id="Oval" fill="#794E27" cx="16" cy="7.5" rx="16" ry="6.5"></ellipse>
            <g id="Combined-Shape">
                <use fill="black" fill-opacity="1" filter="url(#filter-4)" xlink:href="#path-3"></use>
                <use fill="#FFFFFF" fill-rule="evenodd" xlink:href="#path-3"></use>
            </g>
            <ellipse id="Oval-5" fill-opacity="0.23680933" fill="#000000" cx="5.5" cy="22" rx="1" ry="1"></ellipse>
            <ellipse id="Oval-5" fill-opacity="0.23680933" fill="#000000" cx="3.5" cy="21" rx="1" ry="1"></ellipse>
            <ellipse id="Oval-5" fill-opacity="0.23680933" fill="#000000" cx="1.5" cy="20" rx="1" ry="1"></ellipse>
        </g>
    </g>
</svg>

<svg width="32" height="32" viewBox="0 0 32 32" xmlns="http://www.w3.org/2000/svg" xmlns:xlink="http://www.w3.org/1999/xlink"><defs><linearGradient x1="50%" y1="0%" x2="50%" y2="100%" id="a"><stop stop-color="#6F4824" offset="0%"/><stop stop-color="#8F5D2F" offset="100%"/></linearGradient><linearGradient x1="2.734%" y1="39.021%" y2="39.021%" id="b"><stop stop-color="#BF9155" offset="0%"/><stop stop-color="#8B582B" offset="100%"/></linearGradient><path d="M24 21.172L22.172 23 24 24.828V29a1 1 0 0 1-1 1H8V16h15a1 1 0 0 1 1 1v4.172zM10 18v10h12V18H10zm2 4h10v2H12v-2z" id="d"/><filter x="-9.4%" y="-10.7%" width="118.8%" height="121.4%" filterUnits="objectBoundingBox" id="c"><feMorphology radius=".5" operator="dilate" in="SourceAlpha" result="shadowSpreadOuter1"/><feOffset in="shadowSpreadOuter1" result="shadowOffsetOuter1"/><feColorMatrix values="0 0 0 0 0 0 0 0 0 0 0 0 0 0 0 0 0 0 0.137879303 0" in="shadowOffsetOuter1"/></filter></defs><g fill="none" fill-rule="evenodd"><ellipse fill="url(#a)" cx="16" cy="7" rx="16" ry="6"/><path d="M.91 21H0v4c0 3.314 7.163 6 16 6s16-2.686 16-6v-4h-.91c.59.626.91 1.299.91 2 0 3.314-7.163 6-16 6S0 26.314 0 23c0-.701.32-1.374.91-2z" fill="#000" opacity=".066"/><path fill="#644222" d="M22 21h2v2h-2z"/><path d="M32 8v17c0 3.314-7.163 6-16 6S0 28.314 0 25V9c0 3.314 7.163 6 16 6s16-2.686 16-6V8z" fill="url(#b)"/><ellipse fill="#794E27" cx="16" cy="7.5" rx="16" ry="6.5"/><use fill="#000" filter="url(#c)" xlink:href="#d"/><use fill="#FFF" xlink:href="#d"/><ellipse fill-opacity=".237" fill="#000" cx="5.5" cy="22" rx="1" ry="1"/><ellipse fill-opacity=".237" fill="#000" cx="3.5" cy="21" rx="1" ry="1"/><ellipse fill-opacity=".237" fill="#000" cx="1.5" cy="20" rx="1" ry="1"/></g></svg>
